X:1139
T:The Wraggle-taggle Gypsies
T:The Sheriff's Ride
C:Traditional English
R:Reel
S:Colin Hume's website,  colinhume.com  - chords can also be printed below the stave.
Q:1/2=120
M:2/2
L:1/8
K:G
BA | "Em"G2F2 E2FG | "D"AGF2 "Em"E3B | "C"e2e2 e2fe | "G"d2B2 B3c |\
"G"d2d2 "Em"e2Bc | "G"dcB2 "Am"A3E | "C"G2AA "D"dcBA | "Em"B2E2 E2z2 |
"Em"e2e2 e2fe | "Bm"d2B2 B2z2 | "Em"e2e2 e2fe | "Bm"d2B2 B2zc |\
"G"d2d2 "Em"e2Bc | "G"dcB2 "Am"A3E | "C"G2AA "D"dcBA | "Em"B2E2 E2z2 |]

